X: 38194
T: Sprightly Widow, The
R: jig
M: 6/8
K: Adorian
g|:fed cBA|ecA A2 g|fed cBA|dBG G2 g|
fed cBA|def g3|agf gfe|1 dBG G2 g:|2 dBG G2 B||
A2 a aec|aec A2 B|G2 g gdB|gdB G2 B|
A2 a aec|def g3|agf gfe|1 dBG G2 B:|2 dBG G2 g||

